icons/excel.svg

<svg xmlns="http://www.w3.org/2000/svg" viewBox="0 0 16 16"><path fill="#6aab20" d="M13.4 8.488h-2.228V7.349H13.4v1.14Zm0 .651h-2.228v1.14H13.4V9.14Zm0-5.372h-2.228v1.14H13.4zm0 1.791h-2.228V6.7H13.4zm0 5.372h-2.228v1.14H13.4zm1.537 2.247a.64.64 0 0 1-.727.358H9.264V15h-.987L1 13.7V2.3L8.319 1h.945v1.3h4.774a1.44 1.44 0 0 1 .8.156 1.53 1.53 0 0 1 .162.821l-.006 8.475a7.6 7.6 0 0 1-.059 1.425Zm-8.1-2.554c-.446-.912-.893-1.817-1.33-2.729q.649-1.331 1.283-2.668-.541.027-1.081.067c-.269.669-.582 1.32-.792 2.007-.2-.653-.455-1.281-.692-1.918q-.525.035-1.049.067c.369.834.762 1.651 1.124 2.494-.426.814-.82 1.639-1.228 2.457.348.015.7.029 1.045.034.248-.648.556-1.271.773-1.932a20 20 0 0 0 .793 2.045q.573.042 1.147.076Zm7.407-7.552h-4.98v.7h1.272v1.14H9.264v.647h1.272V6.7H9.264v.649h1.272v1.14H9.264v.651h1.272v1.14H9.264v.65h1.272v1.14H9.264v.753h4.973V3.071Z" data-iconColor="Excel"/></svg>

<!--
  - The MIT License (MIT)
  -
  - Copyright (c) 2015-2024 Elior "Mallowigi" Boukhobza
  -
  - Permission is hereby granted, free of charge, to any person obtaining a copy
  - of this software and associated documentation files (the "Software"), to deal
  - in the Software without restriction, including without limitation the rights
  - to use, copy, modify, merge, publish, distribute, sublicense, and/or sell
  - copies of the Software, and to permit persons to whom the Software is
  - furnished to do so, subject to the following conditions:
  -
  - The above copyright notice and this permission notice shall be included in all
  - copies or substantial portions of the Software.
  -
  - THE SOFTWARE IS PROVIDED "AS IS", WITHOUT WARRANTY OF ANY KIND, EXPRESS OR
  - IMPLIED, INCLUDING BUT NOT LIMITED TO THE WARRANTIES OF MERCHANTABILITY,
  - FITNESS FOR A PARTICULAR PURPOSE AND NONINFRINGEMENT. IN NO EVENT SHALL THE
  - AUTHORS OR COPYRIGHT HOLDERS BE LIABLE FOR ANY CLAIM, DAMAGES OR OTHER
  - LIABILITY, WHETHER IN AN ACTION OF CONTRACT, TORT OR OTHERWISE, ARISING FROM,
  - OUT OF OR IN CONNECTION WITH THE SOFTWARE OR THE USE OR OTHER DEALINGS IN THE
  - SOFTWARE.
  -
  -->

<svg  xmlns="http://www.w3.org/2000/svg" width="16px" height="16px" viewBox="0 0 16 16">
  <path fill="#6AAB20" data-iconColor="Excel"
        d="M13.4,8.488H11.172V7.349H13.4v1.14Zm0,0.651H11.172v1.14H13.4V9.14Zm0-5.372H11.172v1.14H13.4V3.767Zm0,1.791H11.172V6.7H13.4V5.558Zm0,5.372H11.172v1.14H13.4V10.93Zm1.537,2.247a0.643,0.643,0,0,1-.727.358H9.264V15H8.277L1,13.7V2.3L8.319,1H9.264V2.3h4.774a1.435,1.435,0,0,1,.8.156A1.526,1.526,0,0,1,15,3.277l-0.006,8.475A7.612,7.612,0,0,1,14.935,13.177Zm-8.1-2.554C6.391,9.711,5.944,8.806,5.507,7.894Q6.156,6.563,6.79,5.226q-0.541.027-1.081,0.067C5.44,5.962,5.127,6.613,4.917,7.3c-0.2-.653-0.455-1.281-0.692-1.918Q3.7,5.417,3.176,5.449C3.545,6.283,3.938,7.1,4.3,7.943,3.874,8.757,3.48,9.582,3.072,10.4c0.348,0.015.7,0.029,1.045,0.034,0.248-.648.556-1.271,0.773-1.932a19.494,19.494,0,0,0,.793,2.045C6.065,10.575,6.447,10.6,6.83,10.623Zm7.407-7.552H9.264v0.7h1.272v1.14H9.264V5.558h1.272V6.7H9.264V7.349h1.272v1.14H9.264V9.14h1.272v1.14H9.264V10.93h1.272v1.14H9.264v0.753h4.973V3.071Z"
  />
</svg>
